**kern	**silbe
*ICvox	*
*D-:	*
*M12/8	*
*clefF4	*
r;	.
=1	=1
2.r	.
4.r	.
4AA-	I
8BB-	was
=2	=2
4D-	to-
8D-	-tin'
4D-	my
[8D-	pack
8D-]	_
8r	.
8AA-	a-
4BB-	-long
8AA-	the
=3	=3
4D-	du-
4.D-	-sty
16D-	Wi-
16D-	-nne-
16F	-mu-
16D-	-cca
4BB-	roa-
8AA-	-d
8r	.
16AA-	When
16AA-	a-
=4	=4
4.D-	-long
4D-	came
8D-	a
8.D-	se-
[8.D-	-mi
8D-]	_
8r	.
16AA-	with
16AA-	a
=5	=5
4.D-	high
4D-	can-
8D-	-vas
16F	co-
16D-	-vered
4BB-	load
8.r	.
16AA-	If
8AA-	you're
=6	=6
4D-	going
4.D-	to
16D-	Wi-
16D-	-nee-
16D-	-mu-
8D-	-cca
8.D-	Mack
4r	.
8BB-	with
=7	=7
4D-	me
8D-	you
8BB-	can
[4D-	ride
4D-]	_
8r	.
8.r	.
16AA-	So
8AA-	I
=8	=8
4D-	climbed
8D-	in-
4D-	-to
8D-	the
4D-	ca-
[8AA-	-bin
8.AA-]	_
16AA-	and
8AA-	I
=9	=9
16D-	sett-
16D-	-led
[4D-	down
4D-]	_
8D-	in
4.D-	side
4r	.
8AA-	He
=10	=10
4E-	asked
[8E-	me
8.E-]	_
16E-	if
8E-	I'd
16E-	seen
16AA-	a
4BB-	roa-
8AA-	-d
8r	.
8AA-	with
=11	=11
4E-	so
8E-	much
4E-	dust
8E-	and
4E-	sand
8AA-	And
4BB-	I
8AA-	said
=12	=12
16D-	list-
8AA-	-en
16BB-	bud
16D-	_
16r	.
4r	.
8D-	I've
4D-	tra-
8D-	-velled
4BB-	ev-
8AA-	-ery
=13	=13
4D-	road
8D-	in
4D-	this
8D-	here
4.D-	land
4.r	.
=14	=14
*M4/4	*
4F	I've
8D-	been
4.D-	eve-
4BB-	-ry-
=15	=15
2D-	-where
4.F	man
[8F	I've
=16	=16
4F]	_
8D-	been
4.D-	eve-
4BB-	-ry-
=17	=17
2D-	-where
4F	man
4r	.
=18	=18
4F	Cross
8D-	the
4.D-	de-
4BB-	-serts
=19	=19
4.D-	bare
4.F	man
4D-	I've
=20	=20
4F	breathed
8D-	the
4.D-	moun-
4BB-	-tain
=21	=21
4.D-	air
4.F	man
4D-	Of
=22	=22
8F	tra-
8E-	-vel
4E-	I've
4C	had
4AA-	my
=23	=23
2E-	share
4.F	man
[8F	I've
=24	=24
4F]	_
8D-	been
4.D-	eve-
4BB-	-ry-
=25	=25
1D-	-where
=26	=26
2r	.
4r	.
8AA-	Been
8AA-	to
=27	=27
4D-	Re-
8D-	-no
8D-	Chi-
4D-	-ca-
4D-	-go
=28	=28
4D-	Far-
4D-	-go
8D-	Mi-
8D-	-nne-
8D-	-so-
8D-	-ta
=29	=29
8D-	Bu-
8D-	-ffa-
8D-	-lo
8D-	To-
4D-	-ron-
4D-	-to
=30	=30
4D-	Win-
4D-	-slow
8D-	Sa-
8D-	-ra-
8D-	-so-
8D-	-ta
=31	=31
8D-	Wi-
8D-	-chi-
4D-	-ta
4D-	Tul-
8D-	-sa
[8BB-	O-
=32	=32
8BB-]	_
8D-	-tta-
8D-	-wa
4D-	Ok-
8D-	-la-
8D-	-ho-
8D-	-ma
=33	=33
4D-	Tam-
4D-	-pa
8D-	Pa-
8D-	-na-
4D-	-ma
=34	=34
8D-	Ma-
8D-	-tta-
4D-	-wa
8D-	La
8D-	Pa-
8D-	-lo-
8D-	-ma
=35	=35
4E-	Ban-
4E-	-gor
8E-	Bal-
8E-	-ti-
8E-	-more
[8E-	Sal-
=36	=36
8E-]	_
8E-	-va-
8E-	-dor
[8E-	A-
8E-]	_
8E-	-ma-
8E-	-ri-
8E-	-llo
=37	=37
8D-	To-
8D-	-co-
8D-	-pill-
8D-	-a
8D-	Barr-
8D-	-an-
8D-	-qui-
8D-	-lla
=38	=38
8D-	and
8D-	Pa-
8D-	-di-
8D-	-lla
8D-	I'm
8D-	a
8D-	ki-
8D-	-ller
=39	=39
4F	I've
8D-	been
4.D-	eve-
4BB-	-ry-
=40	=40
2D-	-where
8F	man
8r	.
8r	.
[8F	I've
=41	=41
4F]	_
8D-	been
4.D-	eve-
4BB-	-ry-
=42	=42
2D-	-where
4F	man
4r	.
=43	=43
4F	Cross
8D-	the
4.D-	de-
4BB-	-serts
=44	=44
4.D-	bare
4.F	man
4D-	I've
=45	=45
4F	breathed
8D-	the
4.D-	moun-
4BB-	-tain
=46	=46
4.D-	air
4.F	man
4D-	Of
=47	=47
8F	tra-
8E-	-vel
4E-	I've
4C	had
4AA-	my
=48	=48
2E-	share
8F	man
8r	.
8r	.
[8F	I've
=49	=49
4F]	_
8D-	been
4.D-	eve-
4BB-	-ry-
=50	=50
1D-	-where
=51	=51
1r	.
=52	=52
*D:	*
1r	.
=53	=53
2r	.
4r	.
4AA	Bo-
=54	=54
4D	_
4D	-ston
8D	Char-
8D	-les-
4D	-ton
=55	=55
4D	Day-
8D	-ton
8D	Lou-
8D	-is-
8D	-i-
8D	-a-
8D	-na
=56	=56
8D	Wa-
8D	-shing-
4D	-ton
4D	Hous-
4D	-ton
=57	=57
4D	Kings-
8D	-ton
4D	Tex-
8D	-ar-
8D	-ka-
8D	-na
=58	=58
8D	Mon-
8D	-ter-
4D	-ey
8D	Fe-
8D	-rri-
4D	-day
=59	=59
8D	San-
8D	-ta
8D	Fe
4D	Tall-
8D	-a-
8D	-poo-
8D	-sa
=60	=60
4D	Glen
4D	Rock
4D	Black
4D	Rock
=61	=61
8D	Li-
8D	-ttle
8D	Rock
4D	Os-
8D	-ka-
8D	-loo-
8D	-sa
=62	=62
8E	Te-
8E	-nne-
4E	-ssee
8E	He-
8E	-nne-
8E	-ssey
[8E	Chi-
=63	=63
8E]	_
8E	-co-
4E	-pee
8E	Spi-
8E	-rit
8E	Lake
[8D	Grand
=64	=64
4D]	_
4D	Lake
8D	De-
8D	-vil's
4D	Lake
=65	=65
8D	Cra-
8D	-ter
8D	Lake
8D	for
4D	Pete's
8D	sake
[8F#	I've
=66	=66
4F#]	_
8D	been
4.D	eve-
4BB	-ry-
=67	=67
2D	-where
4F#	man
4r	.
=68	=68
4F#	I've
8D	been
4.D	eve-
4BB	-ry-
=69	=69
2D	-where
8F#	man
8r	.
4r	.
=70	=70
4F#	Cross
8D	the
4.D	de-
4BB	-serts
=71	=71
4.D	bare
4.F#	man
4D	I've
=72	=72
4F#	breathed
8D	the
4.D	moun-
4BB	-tain
=73	=73
4.D	air
4F#	man
8r	.
4D	Of
=74	=74
8F#	tra-
8E	-vel
4E	I've
4C#	had
4AA	my
=75	=75
2E	share
4F#	man
8r	.
[8F#	I've
=76	=76
4F#]	_
8D	been
4.D	eve-
4BB	-ry-
=77	=77
1D	-where
=78	=78
1r	.
=79	=79
*E-:	*
1r	.
=80	=80
2r	.
4.r	.
[8E-	Lou-
=81	=81
8E-]	_
8E-	-is-
4E-	-ville
4E-	Nash-
8E-	-ville
[8E-	Knox-
=82	=82
4E-]	_
8E-	-ville
4E-	Om-
8E-	-ba-
8E-	-bi-
8E-	-ka
=83	=83
8E-	She-
8E-	-ffer-
4E-	-ville
8E-	Jack-
8E-	-son-
8E-	-ville
[8E-	Wa-
=84	=84
8E-]	_
8E-	-ter-
8E-	-ville
4E-	Co-
8E-	-sta
8E-	Ri-
8E-	-ca
=85	=85
4E-	Pitts-
4E-	-field
4E-	Spring-
8E-	-field
[8E-	Ba-
=86	=86
8E-]	_
8E-	-kers-
4E-	-field
4E-	Shreve-
8E-	-port
[8E-	Hack-
=87	=87
8E-]	_
8E-	-en-
4E-	-sack
8E-	Ca-
8E-	-di-
8E-	-llac
[8E-	Fond
=88	=88
8E-]	_
8E-	do
4E-	Lac
8E-	Da-
8E-	-ven-
4E-	-port
=89	=89
8F	I-
8F	-da-
4F	-ho
8F	Je-
8F	-lli-
8F	-coe
[8F	Ar-
=90	=90
8F]	_
8F	-gen-
8F	-ti-
8F	-na
8F	Dia-
8F	-mon-
8F	-ti-
8F	-na
=91	=91
8E-	Pa-
8E-	-sa-
8E-	-de-
8E-	-na
8E-	Ca-
8E-	-ta-
8E-	-li-
8E-	-na
=92	=92
4E-	See
8E-	what
8E-	I
4E-	mean
8E-	sir?
[8G	I've
=93	=93
4G]	_
8E-	been
4.E-	eve-
4C	-ry-
=94	=94
2E-	-where
4G	man
4r	.
=95	=95
4G	I've
8E-	been
4.E-	eve-
4C	-ry-
=96	=96
2E-	-where
4G	man
4r	.
=97	=97
4G	Cross
8E-	the
4.E-	de-
4C	-serts
=98	=98
4.E-	bare
4.G	man
4E-	I've
=99	=99
4G	breathed
8E-	the
4.E-	moun-
4C	-tain
=100	=100
4.E-	air
4.G	man
4E-	Of
=101	=101
8G	tra-
8F	-vel
4F	I've
4D	had
4BB-	my
=102	=102
2F	share
4.G	man
[8G	I've
=103	=103
4G]	_
8E-	been
4.E-	eve-
4C	-ry-
=104	=104
1E-	-where
=105	=105
1r	.
=106	=106
*E:	*
1r	.
=107	=107
2r	.
4.r	.
[8E	Pitts-
=108	=108
4E]	_
4E	-burgh
8E	Park-
8E	-ers-
8E	-burg
[8E	Gra-
=109	=109
8E]	_
8E	-vell-
4E	-burg
8E	Co-
8E	-lo-
8E	-ra-
8E	-do
=110	=110
8E	Ell-
8E	-ens-
4E	-burg
4E	Rex-
4E	-burg
=111	=111
4E	Vicks-
8E	-burg
4E	El-
8E	-do-
8E	-ra-
8E	-do
=112	=112
8E	Larr-
8E	-i-
8E	-more
4.E	At-
4E	-more
=113	=113
8E	Ha-
8E	-ver-
8E	-straw
4E	Cha-
8E	-tta-
8E	-ni-
8E	-ka
=114	=114
4E	Chas-
8E	-ka
8E	Ne-
4E	-bras-
8E	-ka
8E	A-
=115	=115
4E	-las-
8E	-ka
4E	O-
8E	-pe-
8E	-li-
8E	-ka
=116	=116
8F#	Ba-
8F#	-ra-
4F#	-boo
8F#	Wa-
8F#	-ter-
8F#	-loo
[8F#	Kala-
=117	=117
8F#]	_
8F#	-ma-
4F#	-zoo
8F#	Kan-
8F#	-sas
8F#	Ci-
8F#	-ty
=118	=118
4E	Sioux
8E	Ci-
8E	-ty
8E	Ce-
8E	-dar
8E	Ci-
8E	-ty
=119	=119
4E	Dodge
8E	Ci-
8E	-ty
8E	What
8E	a
8E	pi-
8E	-ty
=120	=120
4G#	I've
8E	been
4.E	eve-
4C#	-ry-
=121	=121
2E	-where
4G#	man
8r	.
[8G#	I've
=122	=122
4G#]	_
8E	been
4.E	eve-
4C#	-ry-
=123	=123
2E	-where
4G#	man
4r	.
=124	=124
4G#	Cross
8E	the
4.E	de-
4C#	-serts
=125	=125
4.E	bare
4.G#	man
4E	I've
=126	=126
4G#	breathed
8E	the
4.E	moun-
4C#	-tain
=127	=127
4.E	air
4.G#	man
4E	Of
=128	=128
8G#	tra-
8F#	-vel
4F#	I've
4D#	had
4BB	my
=129	=129
2F#	share
4G#	man
8r	.
8r	.
=130	=130
1r	.
=131	=131
2.r	.
4EE	I've
=132	=132
4BB	_
4AA	been
4GG#	eve-
4FF#	-ry-
=133	=133
[1EE	-where
=134	=134
1EE]	_
=135	=135
1r	.
=136	=136
1r	.
r;	.
r;	.
*-	*-
!!!ENC: Nathaniel Condit-Schultz